Newaita-dark/.places-darknight/128/folder-activities.svg

<?xml version="1.0" encoding="UTF-8"?>
<svg xmlns="http://www.w3.org/2000/svg" xmlns:xlink="http://www.w3.org/1999/xlink" width="128pt" height="128pt" viewBox="0 0 128 128" version="1.1">
<defs>
<linearGradient id="linear0" gradientUnits="userSpaceOnUse" x1="254" y1="233.5" x2="254" y2="254.666672" gradientTransform="matrix(0.250024,0,0,0.250024,-0.0000152602,51.10906)">
<stop offset="0" style="stop-color:rgb(0%,0%,0%);stop-opacity:0.27451;"/>
<stop offset="1" style="stop-color:rgb(0%,0%,0%);stop-opacity:0;"/>
</linearGradient>
<radialGradient id="radial0" gradientUnits="userSpaceOnUse" cx="450.908936" cy="189.579361" fx="450.908936" fy="189.579361" r="21.166656" gradientTransform="matrix(0.000000696681,-0.31253,-0.562554,-0.000000406154,216.460851,251.735249)">
<stop offset="0" style="stop-color:rgb(0%,0%,0%);stop-opacity:0.313725;"/>
<stop offset="0.222222" style="stop-color:rgb(0%,0%,0%);stop-opacity:0.27451;"/>
<stop offset="1" style="stop-color:rgb(0%,0%,0%);stop-opacity:0;"/>
</radialGradient>
<radialGradient id="radial1" gradientUnits="userSpaceOnUse" cx="450.908936" cy="189.579361" fx="450.908936" fy="189.579361" r="21.166656" gradientTransform="matrix(-0.000000696681,0.31253,0.562554,0.000000406154,-89.448711,-32.755996)">
<stop offset="0" style="stop-color:rgb(0%,0%,0%);stop-opacity:0.313725;"/>
<stop offset="0.222222" style="stop-color:rgb(0%,0%,0%);stop-opacity:0.27451;"/>
<stop offset="1" style="stop-color:rgb(0%,0%,0%);stop-opacity:0;"/>
</radialGradient>
<radialGradient id="radial2" gradientUnits="userSpaceOnUse" cx="450.908936" cy="189.579361" fx="450.908936" fy="189.579361" r="21.166656" gradientTransform="matrix(-0.000000696681,-0.31253,0.562554,-0.000000406154,-89.448711,251.735249)">
<stop offset="0" style="stop-color:rgb(0%,0%,0%);stop-opacity:0.313725;"/>
<stop offset="0.222222" style="stop-color:rgb(0%,0%,0%);stop-opacity:0.27451;"/>
<stop offset="1" style="stop-color:rgb(0%,0%,0%);stop-opacity:0;"/>
</radialGradient>
<radialGradient id="radial3" gradientUnits="userSpaceOnUse" cx="450.908936" cy="189.579361" fx="450.908936" fy="189.579361" r="21.166656" gradientTransform="matrix(0.000000696681,0.31253,-0.562554,0.000000406154,216.460843,-32.755998)">
<stop offset="0" style="stop-color:rgb(0%,0%,0%);stop-opacity:0.313725;"/>
<stop offset="0.222222" style="stop-color:rgb(0%,0%,0%);stop-opacity:0.27451;"/>
<stop offset="1" style="stop-color:rgb(0%,0%,0%);stop-opacity:0;"/>
</radialGradient>
<linearGradient id="linear1" gradientUnits="userSpaceOnUse" x1="529.115845" y1="230.790665" x2="529.115845" y2="-531.136169" gradientTransform="matrix(0.125024,0,0,0.125024,0,80.635265)">
<stop offset="0" style="stop-color:rgb(25.882353%,25.882353%,25.882353%);stop-opacity:1;"/>
<stop offset="1" style="stop-color:rgb(38.039216%,38.039216%,38.039216%);stop-opacity:1;"/>
</linearGradient>
<linearGradient id="linear2" gradientUnits="userSpaceOnUse" x1="380.96344" y1="230.79068" x2="380.96344" y2="-446.477661" gradientTransform="matrix(0.125024,0,0,0.125024,0,80.635265)">
<stop offset="0" style="stop-color:rgb(38.039216%,38.039216%,38.039216%);stop-opacity:1;"/>
<stop offset="1" style="stop-color:rgb(45.882353%,45.882353%,45.882353%);stop-opacity:1;"/>
</linearGradient>
<linearGradient id="linear3" gradientUnits="userSpaceOnUse" x1="328.083344" y1="222.916672" x2="328.083344" y2="-158.083328" gradientTransform="matrix(3.779528,0,0,3.779528,0,812.59845)">
<stop offset="0" style="stop-color:rgb(25.882353%,25.882353%,25.882353%);stop-opacity:1;"/>
<stop offset="1" style="stop-color:rgb(38.039216%,38.039216%,38.039216%);stop-opacity:1;"/>
</linearGradient>
</defs>
<g id="surface1">
<path style=" stroke:none;fill-rule:nonzero;fill:url(#linear0);" d="M 15.875 109.488281 L 111.136719 109.488281 L 111.136719 114.78125 L 15.875 114.78125 Z M 15.875 109.488281 "/>
<path style=" stroke:none;fill-rule:nonzero;fill:url(#radial0);" d="M 111.136719 109.488281 L 121.71875 109.488281 L 121.71875 104.199219 L 111.136719 104.199219 Z M 111.136719 109.488281 "/>
<path style=" stroke:none;fill-rule:nonzero;fill:url(#radial1);" d="M 15.875 109.488281 L 5.292969 109.488281 L 5.292969 114.78125 L 15.875 114.78125 Z M 15.875 109.488281 "/>
<path style=" stroke:none;fill-rule:nonzero;fill:url(#radial2);" d="M 15.875 109.488281 L 5.292969 109.488281 L 5.292969 104.199219 L 15.875 104.199219 Z M 15.875 109.488281 "/>
<path style=" stroke:none;fill-rule:nonzero;fill:url(#radial3);" d="M 111.136719 109.488281 L 121.71875 109.488281 L 121.71875 114.78125 L 111.136719 114.78125 Z M 111.136719 109.488281 "/>
<path style=" stroke:none;fill-rule:nonzero;fill:url(#linear1);" d="M 29.105469 14.230469 L 115.105469 14.230469 C 118.027344 14.230469 120.398438 16.601562 120.398438 19.523438 L 120.398438 39.367188 C 120.398438 42.292969 118.027344 44.660156 115.105469 44.660156 L 29.105469 44.660156 C 26.183594 44.660156 23.816406 42.292969 23.816406 39.367188 L 23.816406 19.523438 C 23.816406 16.601562 26.183594 14.230469 29.105469 14.230469 Z M 29.105469 14.230469 "/>
<path style=" stroke:none;fill-rule:nonzero;fill:rgb(90.196079%,90.196079%,90.196079%);fill-opacity:0.588235;" d="M 29.105469 14.230469 C 26.175781 14.230469 23.816406 16.589844 23.816406 19.523438 L 23.816406 20.183594 C 23.816406 17.253906 26.175781 14.890625 29.105469 14.890625 L 115.105469 14.890625 C 118.035156 14.890625 120.398438 17.253906 120.398438 20.183594 L 120.398438 19.523438 C 120.398438 16.589844 118.035156 14.230469 115.105469 14.230469 Z M 29.105469 14.230469 "/>
<path style=" stroke:none;fill-rule:nonzero;fill:rgb(12.941177%,12.941177%,12.941177%);fill-opacity:1;" d="M 29.105469 13.855469 C 25.972656 13.855469 23.441406 16.390625 23.441406 19.523438 L 23.441406 39.367188 C 23.441406 42.5 25.972656 45.035156 29.105469 45.035156 L 115.105469 45.035156 C 118.238281 45.035156 120.773438 42.5 120.773438 39.367188 L 120.773438 19.523438 C 120.773438 16.390625 118.238281 13.855469 115.105469 13.855469 Z M 29.105469 14.605469 L 115.105469 14.605469 C 117.835938 14.605469 120.023438 16.792969 120.023438 19.523438 L 120.023438 39.367188 C 120.023438 42.097656 117.835938 44.285156 115.105469 44.285156 L 29.105469 44.285156 C 26.375 44.285156 24.191406 42.097656 24.191406 39.367188 L 24.191406 19.523438 C 24.191406 16.792969 26.375 14.605469 29.105469 14.605469 Z M 29.105469 14.605469 "/>
<path style=" stroke:none;fill-rule:nonzero;fill:url(#linear2);" d="M 10.585938 24.816406 C 7.652344 24.816406 5.292969 27.175781 5.292969 30.105469 L 5.292969 104.199219 C 5.292969 107.128906 7.652344 109.488281 10.585938 109.488281 L 116.429688 109.488281 C 119.359375 109.488281 121.71875 107.128906 121.71875 104.199219 L 121.71875 38.046875 L 50.277344 38.046875 C 47.34375 38.046875 44.984375 35.683594 44.984375 32.753906 L 44.984375 24.816406 Z M 10.585938 24.816406 "/>
<path style=" stroke:none;fill-rule:nonzero;fill:rgb(0%,0%,0%);fill-opacity:0.196078;" d="M 10.585938 109.488281 C 7.652344 109.488281 5.292969 107.128906 5.292969 104.199219 L 5.292969 103.535156 C 5.292969 106.46875 7.652344 108.828125 10.585938 108.828125 L 116.429688 108.828125 C 119.359375 108.828125 121.71875 106.46875 121.71875 103.535156 L 121.71875 104.199219 C 121.71875 107.128906 119.359375 109.488281 116.429688 109.488281 Z M 10.585938 109.488281 "/>
<path style=" stroke:none;fill-rule:nonzero;fill:rgb(90.196079%,90.196079%,90.196079%);fill-opacity:0.937255;" d="M 10.585938 24.816406 C 7.652344 24.816406 5.292969 27.175781 5.292969 30.105469 L 5.292969 30.769531 C 5.292969 27.835938 7.652344 25.476562 10.585938 25.476562 L 44.984375 25.476562 L 44.984375 24.816406 Z M 10.585938 24.816406 "/>
<path style=" stroke:none;fill-rule:nonzero;fill:rgb(90.196079%,90.196079%,90.196079%);fill-opacity:0.937255;" d="M 49.945312 38.375 C 47.011719 38.375 44.652344 36.015625 44.652344 33.082031 L 44.652344 32.421875 C 44.652344 35.355469 47.011719 37.71875 49.945312 37.714844 L 121.71875 37.714844 L 121.71875 38.375 Z M 49.945312 38.375 "/>
<path style=" stroke:none;fill-rule:nonzero;fill:rgb(12.941177%,12.941177%,12.941177%);fill-opacity:1;" d="M 10.585938 24.441406 C 7.453125 24.441406 4.917969 26.972656 4.917969 30.105469 L 4.917969 104.199219 C 4.917969 107.332031 7.453125 109.863281 10.585938 109.863281 L 116.429688 109.863281 C 119.5625 109.863281 122.09375 107.332031 122.09375 104.199219 L 122.09375 37.296875 L 50.277344 37.296875 C 47.546875 37.296875 45.359375 35.109375 45.359375 32.378906 L 45.359375 24.441406 Z M 10.585938 25.191406 L 44.609375 25.191406 L 44.609375 32.378906 C 44.609375 35.511719 47.140625 38.046875 50.277344 38.046875 L 121.34375 38.046875 L 121.34375 104.199219 C 121.34375 106.929688 119.160156 109.113281 116.429688 109.113281 L 10.585938 109.113281 C 7.855469 109.113281 5.667969 106.929688 5.667969 104.199219 L 5.667969 30.105469 C 5.667969 27.375 7.855469 25.191406 10.585938 25.191406 Z M 10.585938 25.191406 "/>
<path style="fill-rule:nonzero;fill:url(#linear3);stroke-width:11.338583;stroke-linecap:round;stroke-linejoin:miter;stroke:rgb(12.941177%,12.941177%,12.941177%);stroke-opacity:1;stroke-miterlimit:4;" d="M 639.978289 975.14315 C 617.834733 975.14315 600.001789 992.976094 600.001789 1015.11965 L 600.001789 1095.131698 C 600.001789 1117.275254 617.834733 1135.108198 639.978289 1135.108198 L 719.990337 1135.108198 C 742.133893 1135.108198 760.025886 1117.275254 760.025886 1095.131698 L 760.025886 1015.11965 C 760.025886 992.976094 742.133893 975.14315 719.990337 975.14315 Z M 919.990934 975.14315 C 897.847378 975.14315 880.014434 992.976094 880.014434 1015.11965 L 880.014434 1095.131698 C 880.014434 1117.275254 897.847378 1135.108198 919.990934 1135.108198 L 1000.002982 1135.108198 C 1022.146538 1135.108198 1039.979482 1117.275254 1039.979482 1095.131698 L 1039.979482 1015.11965 C 1039.979482 992.976094 1022.146538 975.14315 1000.002982 975.14315 Z M 1200.003579 975.14315 C 1177.860023 975.14315 1160.027079 992.976094 1160.027079 1015.11965 L 1160.027079 1095.131698 C 1160.027079 1117.275254 1177.860023 1135.108198 1200.003579 1135.108198 L 1280.015627 1135.108198 C 1302.159183 1135.108198 1319.992127 1117.275254 1319.992127 1095.131698 L 1319.992127 1015.11965 C 1319.992127 992.976094 1302.159183 975.14315 1280.015627 975.14315 Z M 1200.003579 975.14315 " transform="matrix(0.0661521,0,0,0.0661521,0,0)"/>
</g>
</svg>

<svg xmlns="http://www.w3.org/2000/svg" width="128pt" height="128pt" viewBox="0 0 128 128"><defs><linearGradient id="a" gradientUnits="userSpaceOnUse" x1="254" y1="233.5" x2="254" y2="254.667" gradientTransform="matrix(.25002 0 0 .25002 0 51.11)"><stop offset="0" stop-opacity=".275"/><stop offset="1" stop-opacity="0"/></linearGradient><radialGradient id="b" gradientUnits="userSpaceOnUse" cx="450.909" cy="189.579" fx="450.909" fy="189.579" r="21.167" gradientTransform="matrix(0 -.31253 -.56255 0 216.46 251.735)"><stop offset="0" stop-opacity=".314"/><stop offset=".222" stop-opacity=".275"/><stop offset="1" stop-opacity="0"/></radialGradient><radialGradient id="c" gradientUnits="userSpaceOnUse" cx="450.909" cy="189.579" fx="450.909" fy="189.579" r="21.167" gradientTransform="matrix(0 .31253 .56255 0 -89.449 -32.756)"><stop offset="0" stop-opacity=".314"/><stop offset=".222" stop-opacity=".275"/><stop offset="1" stop-opacity="0"/></radialGradient><radialGradient id="d" gradientUnits="userSpaceOnUse" cx="450.909" cy="189.579" fx="450.909" fy="189.579" r="21.167" gradientTransform="matrix(0 -.31253 .56255 0 -89.449 251.735)"><stop offset="0" stop-opacity=".314"/><stop offset=".222" stop-opacity=".275"/><stop offset="1" stop-opacity="0"/></radialGradient><radialGradient id="e" gradientUnits="userSpaceOnUse" cx="450.909" cy="189.579" fx="450.909" fy="189.579" r="21.167" gradientTransform="matrix(0 .31253 -.56255 0 216.46 -32.756)"><stop offset="0" stop-opacity=".314"/><stop offset=".222" stop-opacity=".275"/><stop offset="1" stop-opacity="0"/></radialGradient><linearGradient id="f" gradientUnits="userSpaceOnUse" x1="529.116" y1="230.791" x2="529.116" y2="-531.136" gradientTransform="matrix(.12502 0 0 .12502 0 80.635)"><stop offset="0" stop-color="#424242"/><stop offset="1" stop-color="#616161"/></linearGradient><linearGradient id="g" gradientUnits="userSpaceOnUse" x1="380.963" y1="230.791" x2="380.963" y2="-446.478" gradientTransform="matrix(.12502 0 0 .12502 0 80.635)"><stop offset="0" stop-color="#616161"/><stop offset="1" stop-color="#757575"/></linearGradient><linearGradient id="h" gradientUnits="userSpaceOnUse" x1="328.083" y1="222.917" x2="328.083" y2="-158.083" gradientTransform="matrix(3.77953 0 0 3.77953 0 812.598)"><stop offset="0" stop-color="#424242"/><stop offset="1" stop-color="#616161"/></linearGradient></defs><path d="M15.875 109.488h95.262v5.293H15.875zm0 0" fill="url(#a)"/><path d="M111.137 109.488h10.582V104.2h-10.582zm0 0" fill="url(#b)"/><path d="M15.875 109.488H5.293v5.293h10.582zm0 0" fill="url(#c)"/><path d="M15.875 109.488H5.293V104.2h10.582zm0 0" fill="url(#d)"/><path d="M111.137 109.488h10.582v5.293h-10.582zm0 0" fill="url(#e)"/><path d="M29.105 14.23h86a5.295 5.295 0 0 1 5.293 5.293v19.844a5.292 5.292 0 0 1-5.293 5.293h-86a5.289 5.289 0 0 1-5.289-5.293V19.523a5.291 5.291 0 0 1 5.29-5.293zm0 0" fill="url(#f)"/><path d="M29.105 14.23c-2.93 0-5.289 2.36-5.289 5.293v.66c0-2.93 2.36-5.292 5.29-5.292h86a5.285 5.285 0 0 1 5.292 5.293v-.66a5.282 5.282 0 0 0-5.293-5.294zm0 0" fill="#e6e6e6" fill-opacity=".588"/><path d="M29.105 13.855a5.661 5.661 0 0 0-5.664 5.668v19.844a5.661 5.661 0 0 0 5.664 5.668h86a5.665 5.665 0 0 0 5.668-5.668V19.523a5.665 5.665 0 0 0-5.668-5.668zm0 .75h86a4.9 4.9 0 0 1 4.918 4.918v19.844a4.9 4.9 0 0 1-4.918 4.918h-86a4.896 4.896 0 0 1-4.914-4.918V19.523a4.896 4.896 0 0 1 4.914-4.918zm0 0" fill="#212121"/><path d="M10.586 24.816a5.279 5.279 0 0 0-5.293 5.29v74.093c0 2.93 2.36 5.29 5.293 5.29H116.43c2.93 0 5.289-2.36 5.289-5.29V38.047H50.277a5.282 5.282 0 0 1-5.293-5.293v-7.938zm0 0" fill="url(#g)"/><path d="M10.586 109.488a5.279 5.279 0 0 1-5.293-5.289v-.664a5.28 5.28 0 0 0 5.293 5.293H116.43c2.93 0 5.289-2.36 5.289-5.293v.664c0 2.93-2.36 5.29-5.29 5.29zm0 0" fill-opacity=".196"/><path d="M10.586 24.816a5.279 5.279 0 0 0-5.293 5.29v.664a5.28 5.28 0 0 1 5.293-5.293h34.398v-.66zm0 0M49.945 38.375a5.28 5.28 0 0 1-5.293-5.293v-.66a5.277 5.277 0 0 0 5.293 5.293h71.774v.66zm0 0" fill="#e6e6e6" fill-opacity=".937"/><path d="M10.586 24.441a5.661 5.661 0 0 0-5.668 5.664V104.2a5.661 5.661 0 0 0 5.668 5.664H116.43a5.658 5.658 0 0 0 5.664-5.664V37.297H50.277a4.9 4.9 0 0 1-4.918-4.918V24.44zm0 .75h34.023v7.188a5.662 5.662 0 0 0 5.668 5.668h71.067v66.152a4.893 4.893 0 0 1-4.914 4.914H10.586a4.896 4.896 0 0 1-4.918-4.914V30.105a4.896 4.896 0 0 1 4.918-4.914zm0 0" fill="#212121"/><path d="M639.978 975.143c-22.143 0-39.976 17.833-39.976 39.977v80.012c0 22.143 17.833 39.976 39.976 39.976h80.012c22.144 0 40.036-17.833 40.036-39.976v-80.012c0-22.144-17.892-39.977-40.036-39.977zm280.013 0c-22.144 0-39.977 17.833-39.977 39.977v80.012c0 22.143 17.833 39.976 39.977 39.976h80.012c22.144 0 39.976-17.833 39.976-39.976v-80.012c0-22.144-17.832-39.977-39.976-39.977zm280.013 0c-22.144 0-39.977 17.833-39.977 39.977v80.012c0 22.143 17.833 39.976 39.977 39.976h80.012c22.143 0 39.976-17.833 39.976-39.976v-80.012c0-22.144-17.833-39.977-39.976-39.977zm0 0" transform="scale(.06615)" fill="url(#h)" stroke-width="11.339" stroke-linecap="round" stroke="#212121"/></svg>
